!!!!SEGMENT: pl-kk--kk-i-2--021-006_lilius-franciszek--missa-a-4-voci-agnus-dei.krn
!!!cenid: 16xx:1639
!!!COM: Lilius, Franciszek
!!!COM-rismid: pe30020509
!!!CDT: ~1600-1657
!!!CNT: Polish
!!!OPR: Missa a 4 voci
!!!OTL: Agnus Dei
!!!OMV: 006
!!!PDT:
!!!AGN: Sacred; Mass
!!!SMS-siglum: PL-Kk
!!!SMS-shelfmark: Kk.I.2
!!!SMS-shelfwork: 021-006 M
!!!NIFC-rismid: 300258037
!!!URL-scan: http://repozytorium.nifc.pl/skany/pl-kk-nut--i-2
!!!ONB-nifc: Części mszy: Kyrie, Gloria, Credo, Sanctus, Benedictus, Agnus Dei; skany: C: 0049; A: 0151-0152; T: 0254; B: 0352;
!!!key: G:mix
**kern	**text	**kern	**text	**kern	**text	**kern	**text
*part4	*part4	*part3	*part3	*part2	*part2	*part1	*part1
*staff4	*staff4	*staff3	*staff3	*staff2	*staff2	*staff1	*staff1
*I"BASVS	*	*I"TENOR	*	*I"ALTVS	*	*I"DISCANTVS	*
*I'B	*	*I'T	*	*I'A	*	*I'S	*
*Ibass	*	*Itenor	*	*Ialto	*	*Isoprn	*
*ICvox	*	*ICvox	*	*ICvox	*	*ICvox	*
*clefF4	*	*clefC4	*	*clefC4	*	*clefC3	*
*k[b-]	*	*k[b-]	*	*k[b-]	*	*k[b-]	*
*G:mix	*	*G:mix	*	*G:mix	*	*G:mix	*
*M2/1	*	*M2/1	*	*M2/1	*	*M2/1	*
*met(C|)	*	*met(C|)	*	*met(C|)	*	*met(C|)	*
=1-	=1-	=1-	=1-	=1-	=1-	=1-	=1-
!	!	!	!	!LO:TX:t=P:problem:kreska pseudotaktowa	!	!LO:TX:t=P:problem:kreska pseudotaktowa	!
1r	.	1.G	A-	1r	.	1r	.
1.GG	Ag-	.	.	1B-,	A-	1.d	Ag-
!	!	!LO:TX:t=P:problem:kreska pseudotaktowa	!	!	!	!	!
.	.	2G/	-gnus	.	.	.	.
=2-	=2-	=2-	=2-	=2-	=2-	=2-	=2-
!	!	!LO:TX:a:t=P:problem:♭ above	!	!	!	!	!
.	.	1B-X	De-	2G/	-gnus	.	.
!LO:TX:t=P:problem:kreska pseudotaktowa	!	!	!	!	!	!	!
2GG/	-nus	.	.	1d	De-	2d\	-nus
1D,	De-	2A/	-i	.	.	1f	De-
!	!	!LO:TX:t=P:problem:kreska pseudotaktowa	!	!	!	!	!
.	.	2A/	qui	1A,\	-i	.	.
=3-	=3-	=3-	=3-	=3-	=3-	=3-	=3-
1AA	-i	1.c	tol-	.	.	2e\	-i
!	!	!	!	!LO:TX:t=P:problem:kreska pseudotaktowa	!	!LO:TX:t=P:problem:kreska pseudotaktowa	!
.	.	.	.	2A/	qui	2e\	qui
1GG,	qui	.	.	1d,	tol-	1.g	tol-
!	!	!LO:TX:t=P:problem:kreska pseudotaktowa	!	!	!	!	!
.	.	2B-\	-lis	.	.	.	.
=4-	=4-	=4-	=4-	=4-	=4-	=4-	=4-
1D	tol-	4A/	pec-	2d\	-lis	.	.
.	.	4G/	.	.	.	.	.
!	!	!	!	!LO:TX:t=P:problem:kreska pseudotaktowa	!	!	!
.	.	4A/	.	2d\	pec-	2f\	-lis
.	.	4B-\	.	.	.	.	.
!	!	!	!	!	!	!LO:TX:t=P:problem:kreska pseudotaktowa	!
2C/	-lis	1c,	.	2G/	-ca-	1e	pec-
*	*	*	*	*custos:A	*	*	*
!LO:TX:t=P:problem:kreska pseudotaktowa	!	!	!	!LO:LB:g=original	!	!	!
2AA,/	pec-	.	.	2.A,/	.	.	.
=5-	=5-	=5-	=5-	=5-	=5-	=5-	=5-
2.BB-/	-ca-	2B-\	-ca-	.	.	2d\	-ca-
.	.	.	.	4G/	.	.	.
!	!	!LO:TX:t=P:problem:kreska pseudotaktowa	!	!	!	!	!
.	.	2B-\	-ta	1G	-ta	2d\	-ta
4C/	-ta	.	.	.	.	.	.
1D,	mun-	1A,	mun-	.	.	1d	mu(n)-
!	!	!	!	!LO:TX:t=P:problem:kreska pseudotaktowa	!	!	!
!	!	!	!	!LO:TX:b:t=P:problem:# below	!	!	!
.	.	.	.	2F#X/	mu(n)-	.	.
=6-	=6-	=6-	=6-	=6-	=6-	=6-	=6-
!	!	!LO:TX:t=P:problem:kreska pseudotaktowa	!	!	!	!LO:TX:t=P:problem:kreska pseudotaktowa	!
2GG,</	-di	1B-	-di	2G/	-di	0d	-di
1G	mi-	.	.	1B-	mi-	.	.
.	.	00r	.	.	.	.	.
!LO:TX:t=P:problem:kreska pseudotaktowa	!	!	!	!LO:TX:t=P:problem:kreska pseudotaktowa	!	!	!
2F#X\	-ſe-	.	.	2A/	-ſe-	.	.
=7-	=7-	=7-	=7-	=7-	=7-	=7-	=7-
2G\	-re-	.	.	4B-\	-re-	2r	.
.	.	.	.	4c\	.	.	.
2B-\	-re	.	.	4d\	.	1d	mi-
.	.	.	.	4e\	.	.	.
1A,	no-	.	.	2f\	.	.	.
!	!	!	!	!	!	!LO:TX:t=P:problem:kreska pseudotaktowa	!
!	!	!	!	!LO:TX:t=P:problem:kreska pseudotaktowa	!	!LO:TX:b:t=P:problem:# below	!
.	.	.	.	2e\	-re	2c#X/	-ſe-
=8-	=8-	=8-	=8-	=8-	=8-	=8-	=8-
!LO:TX:t=P:problem:kreska pseudotaktowa	!	!	!	!	!	!	!
1D	-bis	.	.	2.d\	no-	2d\	-re-
.	.	.	.	.	.	2f\	-re
.	.	.	.	4c\	.	.	.
!	!	!LO:TX:t=P:problem:kreska pseudotaktowa	!	!	!	!	!
2.G\	mi-	1r	.	2.B-\	.	2e-X\	no-
.	.	.	.	.	.	1d\	.
!	!	!	!	!LO:TX:t=P:problem:kreska pseudotaktowa	!	!	!
4Fny,\	-ſe-	.	.	4A/	.	.	.
=9-	=9-	=9-	=9-	=9-	=9-	=9-	=9-
1E-X	-re-	2r	.	1G	.	.	.
.	.	1G	mi-	.	.	2cny/	.
!	!	!	!	!	!	!LO:TX:t=P:problem:kreska pseudotaktowa	!
1D,	-re	.	.	1A,	.	0d	-bis
!	!	!LO:TX:t=P:problem:kreska pseudotaktowa	!	!	!	!	!
.	.	2F#X/	-ſe-	.	.	.	.
=10-	=10-	=10-	=10-	=10-	=10-	=10-	=10-
!	!	!	!	!LO:TX:t=P:problem:kreska pseudotaktowa	!	!	!
2r	.	2G/	-re-	1G	-bis	.	.
1G	mi-	2B-\	-re	.	.	.	.
.	.	1A	no-	1r,	.	1.d	mi-
!LO:TX:t=P:problem:kreska pseudotaktowa	!	!	!	!	!	!	!
2F#X\	-ſe-	.	.	.	.	.	.
=11-	=11-	=11-	=11-	=11-	=11-	=11-	=11-
!	!	!LO:TX:t=P:problem:kreska pseudotaktowa	!	!	!	!	!
2G\	-re-	1G	-bis	2r	.	.	.
2B-\	-re	.	.	1d	mi-	2d\	-ſe-
*custos:A	*	*	*	*	*	*	*
!LO:LB:g=original	!	!	!	!	!	!	!
2.A\	no-	1r	.	.	.	2f\	-re-
!	!	!	!	!LO:TX:t=P:problem:kreska pseudotaktowa	!	!LO:TX:t=P:problem:kreska pseudotaktowa	!
!	!	!	!	!LO:TX:a:t=P:problem:# above	!	!	!
.	.	.	.	2c#X\	-ſe-	2eny\	-re
4G,\	.	.	.	.	.	.	.
*	*	*	*	*	*	*custos:f	*
!	!	!	!	!	!	!LO:LB:g=original	!
=12-	=12-	=12-	=12-	=12-	=12-	=12-	=12-
2Fny\	.	2r	.	2d\	-re-	2.f\	no-
*	*	*custos:d	*	*	*	*	*
!LO:TX:t=P:problem:kreska pseudotaktowa	!	!LO:LB:g=original	!	!	!	!	!
2D/	.	1d	mi-	2f\	-re	.	.
.	.	.	.	.	.	4g\	.
1AA,	.	.	.	1e,	no-	1a	.
!	!	!LO:TX:t=P:problem:kreska pseudotaktowa	!	!	!	!	!
.	.	2c#X\	-ſe-	.	.	.	.
=13-	=13-	=13-	=13-	=13-	=13-	=13-	=13-
!	!	!	!	!LO:TX:t=P:problem:kreska pseudotaktowa	!	!LO:TX:t=P:problem:kreska pseudotaktowa	!
2D/	-bis	2d\	-re-	1d	-bis	1f	-bis
1D	mi-	2f\	-re	.	.	.	.
.	.	1e,	no-	1A,	mi-	1r	.
!LO:TX:t=P:problem:kreska pseudotaktowa	!	!	!	!	!	!	!
!LO:TX:b:t=P:problem:# below	!	!	!	!	!	!	!
2C#X/	-ſe-	.	.	.	.	.	.
=14-	=14-	=14-	=14-	=14-	=14-	=14-	=14-
!	!	!LO:TX:t=P:problem:kreska pseudotaktowa	!	!	!	!	!
2D/	-re-	1d	-bis	1Fny	-ſe-	2r	.
*	*	*	*	*	*	*	*ij
2F\	-re	.	.	.	.	1d	mi-
1E-X,	no-	2r	.	1G,	-re-	.	.
*	*	*	*ij	*	*	*	*
!	!	!	!	!	!	!LO:TX:t=P:problem:kreska pseudotaktowa	!
.	.	2G,/	mi-	.	.	2c/	-ſe-
=15-	=15-	=15-	=15-	=15-	=15-	=15-	=15-
!	!	!	!	!LO:TX:t=P:problem:kreska pseudotaktowa	!	!	!
2.D/	.	2Fny/	-ſe-	1A	-re	2d/	-re-
!	!	!LO:TX:t=P:problem:kreska pseudotaktowa	!	!	!	!LO:TX:t=P:problem:przekreślona synkopowana wartość	!
.	.	2A/	-re-	.	.	1f	-re
!LO:TX:t=P:problem:kreska pseudotaktowa	!	!	!	!	!	!	!
4Cny/	.	.	.	.	.	.	.
!LO:N:acc=#	!	!	!	!	!	!	!
2BBn/	.	1.G	-re	2d\	no-	.	.
!LO:TX:t=P:problem:kreska pseudotaktowa	!	!	!	!LO:TX:t=P:problem:kreska pseudotaktowa	!	!LO:TX:t=P:problem:przekreślona synkopowana wartość	!
2C,/	.	.	.	2cny\	.	1e-X\	no-
=16-	=16-	=16-	=16-	=16-	=16-	=16-	=16-
1D	.	.	.	2B-\	.	.	.
*	*	*	*	*custos:A	*	*	*
!	!	!	!	!LO:PB:g=original	!	!	!
!	!	!LO:TX:t=P:problem:kreska pseudotaktowa	!	!LO:TX:t=P:problem:kreska pseudotaktowa:między nutą a kropką	!	!LO:TX:t=P:problem:przekreślona synkopowana wartość	!
.	.	2F#X/	no-	2.A/	.	1d	.
!LO:TX:t=P:problem:kreska pseudotaktowa	!	!	!	!	!	!	!
1E-X	.	2.G/	.	.	.	.	.
.	.	.	.	4G/	.	.	.
.	.	.	.	1G,/	.	2c/	.
!	!	!LO:TX:t=P:problem:kreska pseudotaktowa	!	!	!	!	!
.	.	4A/	.	.	.	.	.
=17-	=17-	=17-	=17-	=17-	=17-	=17-	=17-
0D,	.	2B-\	.	.	.	0d	.
.	.	4A/	.	4F/	.	.	.
!	!	!	!	!LO:TX:t=P:problem:kreska pseudotaktowa	!	!	!
.	.	4G/	.	4E/	.	.	.
.	.	1A	.	1F#X,	.	.	.
=18-	=18-	=18-	=18-	=18-	=18-	=18-	=18-
!	!	!LO:TX:b:i:t=Agnus 2dum\nut Et Incarnat(us)\nTertium seq	!	!	!	!	!
!LO:TX:b:i:t=Agn(us) 2dum sicut\nEt Incarnat(us).	!	!LO:N:acc=#	!	!	!	!	!
0GGl;	-bis	0Bnl;<	-bis	0Gl;	-bis	0dl;<	-bis
*	*	*	*Xij	*	*	*	*Xij
!LO:LB:g=original	!	!	!	!	!	!LO:PB:g=original	!
=19||	=19||	=19||	=19||	=19||	=19||	=19||	=19||
*M2/1	*	*M2/1	*	*M2/1	*	*M2/1	*
*met(C|)	*	*met(C|)	*	*met(C|)	*	*met(C|)	*
0r	.	1.G	A-	00r,	.	00r	.
!	!	!LO:TX:t=P:problem:kreska pseudotaktowa	!	!	!	!	!
.	.	2F#X/	-gnus	.	.	.	.
=20-	=20-	=20-	=20-	=20-	=20-	=20-	=20-
!LO:TX:t=P:problem:kreska pseudotaktowa	!	!LO:TX:a:t=P:problem:♭ above	!	!	!	!	!
1r	.	1B-X	De-	.	.	.	.
1.D,	A-	2A,</	-i	.	.	.	.
!	!	!LO:TX:t=P:problem:kreska pseudotaktowa	!	!	!	!	!
.	.	2A/	qui	.	.	.	.
=21-	=21-	=21-	=21-	=21-	=21-	=21-	=21-
!	!	!	!	!LO:TX:t=P:problem:kreska pseudotaktowa	!	!	!
.	.	1.d	tol-	1r	.	00r	.
!LO:TX:t=P:problem:kreska pseudotaktowa	!	!	!	!	!	!	!
2BB-/	-gnus	.	.	.	.	.	.
1E-X,	De-	.	.	2r	.	.	.
!	!	!LO:TX:t=P:problem:kreska pseudotaktowa	!	!	!	!	!
.	.	2c\	-lis	1G,/	A-	.	.
=22-	=22-	=22-	=22-	=22-	=22-	=22-	=22-
2D/	-i	2B-\	pec-	.	.	.	.
!LO:TX:t=P:problem:kreska pseudotaktowa	!	!	!	!LO:TX:t=P:problem:kreska pseudotaktowa	!	!	!
2D/	qui	2A/	-ca-	2F#X/	-gnus	.	.
1G,	tol-	4G/	.	1B-,	De-	.	.
.	.	4A/	.	.	.	.	.
.	.	4B-\	.	.	.	.	.
!	!	!LO:TX:t=P:problem:kreska pseudotaktowa	!	!	!	!	!
.	.	4c\	.	.	.	.	.
=23-	=23-	=23-	=23-	=23-	=23-	=23-	=23-
!	!	!	!	!	!	!LO:TX:t=P:problem:kreska pseudotaktowa	!
2G\	-lis	2d\	.	4A/	-i	0r	.
.	.	.	.	4A/	qui	.	.
!LO:TX:t=P:problem:kreska pseudotaktowa	!	!	!	!LO:TX:t=P:problem:kreska pseudotaktowa:między nutą a kropką	!	!	!
2F\	pec-	2A/	-ta	2.d\	tol-	.	.
2E-X\	-ca-	1.G	mun-	.	.	.	.
.	.	.	.	4d\	-lis	.	.
2E-\	-ta	.	.	2c,\	pec-	.	.
=24-	=24-	=24-	=24-	=24-	=24-	=24-	=24-
1D	mun-	.	.	2B-\	-ca-	1.d	Ag-
!	!	!LO:TX:t=P:problem:kreska pseudotaktowa	!	!	!	!	!
!	!	!LO:TX:b:t=P:problem:# below	!	!LO:TX:t=P:problem:kreska pseudotaktowa	!	!	!
.	.	2F#X/	.	2A/	-ta	.	.
!LO:TX:t=P:problem:kreska pseudotaktowa	!	!	!	!	!	!	!
1GG	-di	0G	.	2B-\	mu(n)-	.	.
!	!	!	!	!	!	!LO:TX:t=P:problem:kreska pseudotaktowa	!
!	!	!	!	!	!	!LO:TX:b:t=P:problem:# below	!
!	!	!	!	!	!	!LO:N:acc=#	!
.	.	.	.	2d,\	.	2Bn/	-nus
=25-	=25-	=25-	=25-	=25-	=25-	=25-	=25-
!	!	!	!	!LO:TX:t=P:problem:kreska pseudotaktowa	!	!	!
2r	.	.	.	1c	-di	1e-X	De-
1C	A-	.	.	.	.	.	.
.	.	2D,</	-di	1r,	.	2d\	-i
!LO:TX:t=P:problem:kreska pseudotaktowa	!	!	!	!	!	!	!
2BB-/	-gnus	2.d,\	qui	.	.	2d,\	qui
=26-	=26-	=26-	=26-	=26-	=26-	=26-	=26-
1E-X	De-	.	.	2r	.	1g	tol-
.	.	4d\	tol-	.	.	.	.
!	!	!LO:TX:t=P:problem:kreska pseudotaktowa	!	!LO:TX:t=P:problem:kreska pseudotaktowa	!	!	!
.	.	2c\	-lis	2G/	qui	.	.
2D/	-i	2B-\	pec-	1d,	tol-	2g\	-lis
!LO:TX:t=P:problem:kreska pseudotaktowa	!	!LO:TX:t=P:problem:kreska pseudotaktowa	!	!	!	!LO:TX:t=P:problem:kreska pseudotaktowa	!
2D,/	qui	2A/	-ca-	.	.	2f\	pec-
*	*	*custos:B	*	*	*	*	*
!	!	!LO:LB:g=original	!	!	!	!	!
=27-	=27-	=27-	=27-	=27-	=27-	=27-	=27-
1G	tol-	2B-\	-ta	2d\	-lis	2e-X\	-ca-
.	.	2c\	mun-	2c\	pec-	2e-X\	-ta
*	*	*	*	*custos:B	*	*	*
!	!	!	!	!LO:LB:g=original	!	!	!
2G\	-lis	1d	.	2B-\	-ca-	2d\	mun-
!	!	!	!	!LO:TX:t=P:problem:kreska pseudotaktowa	!	!	!
2F,\	pec-	.	.	2A/	-ta	4d\	-di
!	!	!	!	!	!	!LO:TX:t=P:problem:kreska pseudotaktowa	!
.	.	.	.	.	.	4d\	pec-
=28-	=28-	=28-	=28-	=28-	=28-	=28-	=28-
2E-X\	-ca-	2G,</	-di	1.B-	mun-	2g\	-ca-
!	!	!LO:TX:t=P:problem:kreska pseudotaktowa	!	!	!	!	!
2D/	-ta	2B-\	pec-	.	.	2f\	-ta
1C,	mun-	1.c	-ca-	.	.	1e-X,	mun-
.	.	.	.	4A/	.	.	.
!	!	!	!	!LO:TX:t=P:problem:kreska pseudotaktowa	!	!	!
.	.	.	.	4G/	.	.	.
=29-	=29-	=29-	=29-	=29-	=29-	=29-	=29-
!LO:TX:t=P:problem:kreska pseudotaktowa	!	!	!	!	!	!	!
0D	.	.	.	2F#X/	.	0d,	.
!	!	!LO:TX:t=P:problem:kreska pseudotaktowa	!	!	!	!	!
.	.	2B-\	-ta	1G	.	.	.
.	.	1A,	mun-	.	.	.	.
!	!	!	!	!LO:TX:t=P:problem:kreska pseudotaktowa	!	!	!
.	.	.	.	2F#X/	.	.	.
*custos:GG	*	*	*	*	*	*	*
!LO:LB:g=original	!	!	!	!	!	!	!
=30-	=30-	=30-	=30-	=30-	=30-	=30-	=30-
!	!	!	!	!LO:TX:t=P:problem:kreska pseudotaktowa	!	!LO:TX:t=P:problem:kreska pseudotaktowa	!
2GG,</	-di	2B-,<\	-di	1G	-di	0d,	-di
1G	do-	1B-	Do-	.	.	.	.
.	.	.	.	2r	.	.	.
!	!	!LO:TX:t=P:problem:kreska pseudotaktowa	!	!	!	!	!
2D,/	-na	2Fny/	-na	1d\	do-	.	.
=31-	=31-	=31-	=31-	=31-	=31-	=31-	=31-
2F\	no-	2A/	no-	.	.	1r	.
!	!	!	!	!LO:TX:t=P:problem:kreska pseudotaktowa	!	!	!
2F\	-bis	2A/	-bis	2A/	-na	.	.
4Eny\	pa-	1G,	pa-	2c\	no-	2r	.
4D\	.	.	.	.	.	.	.
!	!	!	!	!LO:TX:t=P:problem:kreska pseudotaktowa	!	!	!
4E\	.	.	.	2c\	-bis	1g\	do-
!LO:TX:t=P:problem:kreska pseudotaktowa	!	!	!	!	!	!	!
4F\	.	.	.	.	.	.	.
=32-	=32-	=32-	=32-	=32-	=32-	=32-	=32-
!	!	!LO:TX:t=P:problem:kreska pseudotaktowa	!	!	!	!	!
1G	-ce(m)	1G	-cem	4B-\	pa-	.	.
.	.	.	.	4A/	.	.	.
!	!	!	!	!	!	!LO:TX:t=P:problem:kreska pseudotaktowa	!
.	.	.	.	4B-\	.	2d\	-na
.	.	.	.	4c\	.	.	.
2D/	do-	2r	.	1d,	.	2f\	no-
!	!	!LO:TX:t=P:problem:przekreślona synkopowana wartość	!	!	!	!	!
2D,/	-na	1A\	Do-	.	.	2f\	-bis
=33-	=33-	=33-	=33-	=33-	=33-	=33-	=33-
2AA/	no-	.	.	2c\	-cem	4eny\	pa-
.	.	.	.	.	.	4d\	.
!	!	!LO:TX:t=P:problem:przekreślona synkopowana wartość	!	!LO:TX:t=P:problem:kreska pseudotaktowa	!	!	!
1C	-bis	1En	-na	2c\	do-	4e\	.
!	!	!	!	!	!	!LO:TX:t=P:problem:kreska pseudotaktowa	!
.	.	.	.	.	.	4f\	.
.	.	.	.	1G,	-na	2g\	.
*	*	*	*	*	*	*custos:e	*
!	!	!	!	!	!	!LO:LB:g=original	!
!LO:TX:t=P:problem:kreska pseudotaktowa	!	!LO:TX:t=P:problem:przekreślona synkopowana wartość	!	!	!	!LO:TX:t=P:problem:kreska pseudotaktowa	!
2C,/	pa-	1G/	no-	.	.	2e\	.
=34-	=34-	=34-	=34-	=34-	=34-	=34-	=34-
4BB-/	.	.	.	2B-\	no-	4d\	.
4AA/	.	.	.	.	.	4c/	.
!	!	!LO:TX:t=P:problem:kreska pseudotaktowa	!	!LO:TX:t=P:problem:kreska pseudotaktowa	!	!	!
4BB-/	.	2G/	-bis	2B-\	-bis	4d\	.
!	!	!	!	!	!	!LO:TX:t=P:problem:kreska pseudotaktowa	!
4C/	.	.	.	.	.	4e\	.
2.D/	.	4F/	pa-	4A/	pa-	2.f\	.
.	.	4E/	.	4G/	.	.	.
.	.	4F/	.	4A/	.	.	.
!	!	!LO:TX:t=P:problem:kreska pseudotaktowa	!	!LO:TX:t=P:problem:kreska pseudotaktowa	!	!	!
8C/L	.	4G/	.	4B-\	.	8e\L	.
!LO:TX:t=P:problem:kreska pseudotaktowa	!	!	!	!	!	!	!
8BB-,/J	.	.	.	.	.	8d\J	.
=35-	=35-	=35-	=35-	=35-	=35-	=35-	=35-
4AA/	.	2.A/	.	2.c\	.	4c/	.
4BB-/	.	.	.	.	.	4d\	.
2.C/	.	.	.	.	.	4e\	.
!	!	!	!	!	!	!LO:TX:t=P:problem:kreska pseudotaktowa	!
.	.	8G/L	.	8B-\L	.	4f\	.
!	!	!LO:TX:t=P:problem:kreska pseudotaktowa	!	!	!	!	!
.	.	8F/J	.	8A\J	.	.	.
.	.	4E/	.	4G/	.	2.g\	.
8BB-/L	.	4F/	.	4A/	.	.	.
8AA/J	.	.	.	.	.	.	.
2.GG,/	.	4G/	.	4B-\	.	.	.
*	*	*custos:A	*	*	*	*	*
!	!	!LO:LB:g=original	!	!	!	!	!
!	!	!LO:TX:t=P:problem:kreska pseudotaktowa	!	!LO:TX:t=P:problem:kreska pseudotaktowa	!	!	!
.	.	4A/	.	4c\	.	8f\L	.
!	!	!	!	!	!	!LO:TX:t=P:problem:kreska pseudotaktowa	!
.	.	.	.	.	.	8e\J	.
=36-	=36-	=36-	=36-	=36-	=36-	=36-	=36-
.	.	4B-\	.	4d\	.	2.d\	.
4AA/	.	4c\	.	4c\	.	.	.
*	*	*	*	*custos:B	*	*	*
!	!	!	!	!LO:LB:g=original	!	!	!
!	!	!	!	!LO:TX:t=P:problem:kreska pseudotaktowa	!	!	!
4BB-/	.	2.d\	.	2B-\	.	.	.
!LO:TX:t=P:problem:kreska pseudotaktowa	!	!	!	!	!	!	!
4C/	.	.	.	.	.	4e\	.
2.D/	.	.	.	2A/	.	4f\	.
.	.	4e\	.	.	.	4g\	.
.	.	4f\	.	1d\	.	2.a\	.
8C/L	.	8e\L	.	.	.	.	.
!	!	!LO:TX:t=P:problem:kreska pseudotaktowa	!	!	!	!	!
8BB-/J	.	8d\J	.	.	.	.	.
=37-	=37-	=37-	=37-	=37-	=37-	=37-	=37-
1AA	-cem	1e	.	.	.	.	.
.	.	.	.	.	.	8g\L	.
.	.	.	.	.	.	8f\J	.
!	!	!	!	!LO:TX:t=P:problem:kreska pseudotaktowa	!	!LO:TX:t=P:problem:kreska pseudotaktowa	!
.	.	.	.	2c#X\	.	2e\	.
1D,	do-	2.d\	-cem	2d,<\	-cem	1f	-cem
.	.	.	.	1d\	do-	.	.
.	.	4c,\	.	.	.	.	.
=38-	=38-	=38-	=38-	=38-	=38-	=38-	=38-
!	!	!LO:TX:t=P:problem:kreska pseudotaktowa	!	!	!	!LO:TX:t=P:problem:kreska pseudotaktowa	!
1.G	-na	1B-	.	.	.	1g	do-
!	!	!	!	!LO:TX:t=P:problem:kreska pseudotaktowa	!	!	!
.	.	.	.	2G/	-na	.	.
.	.	2r	.	1B-,	no-	2d\	-na
2D,/	no-	1d,\	do-	.	.	1f\	no-
=39-	=39-	=39-	=39-	=39-	=39-	=39-	=39-
1.F	-bis	.	.	2A/	-bis	.	.
!	!	!LO:TX:t=P:problem:kreska pseudotaktowa	!	!	!	!	!
.	.	2A/	-na	1A	pa-	2.c/	.
.	.	1.c,	no-	.	.	.	.
.	.	.	.	.	.	4d/	.
!	!	!	!	!LO:TX:t=P:problem:kreska pseudotaktowa	!	!	!
2E-X,\	pa-	.	.	2G,/	.	4e-X\	.
!	!	!	!	!	!	!LO:TX:t=P:problem:kreska pseudotaktowa	!
.	.	.	.	.	.	4c/	-bis
=40-	=40-	=40-	=40-	=40-	=40-	=40-	=40-
0D	.	.	.	2F#X/	.	1d	pa-
!	!	!LO:TX:t=P:problem:kreska pseudotaktowa	!	!	!	!	!
.	.	2B-\	-bis	1G	.	.	.
.	.	1A,	pa-	.	.	[1dl;;	-cem.
.	.	.	.	2F#X,/	.	.	.
=41-	=41-	=41-	=41-	=41-	=41-	=41-	=41-
!	!	!LO:N:acc=#	!	!	!	!	!
0GGl;;	-ce(m)	0Bnl;;	-cem	0Gl;;	-cem.	0d]	.
==	==	==	==	==	==	==	==
*-	*-	*-	*-	*-	*-	*-	*-
!!!system-decoration: [(*)]
!!!RDF**kern: < = below
!!!RDF**kern: l = terminal long
!!!AIN: 1 alto 1 bass 1 soprn 1 tenor
!!!ENC: Filip Voros
!!!END: 2022-01-10
!!!ENC: Andrzej Kubiczek
!!!END: 2022-01-21
